nova/resources/svg/fluent/home.svg

<svg width="24" height="24" viewBox="0 0 24 24" fill="none" xmlns="http://www.w3.org/2000/svg">
<path d="M11.5358 2.91088C11.8081 2.69637 12.1919 2.69637 12.4642 2.91088L19.5708 8.51003C20.4733 9.2211 21 10.3067 21 11.4556V20.75C21 21.4404 20.4404 22 19.75 22H14.75C14.0596 22 13.5 21.4404 13.5 20.75V15.75C13.5 15.6119 13.3881 15.5 13.25 15.5H10.75C10.6119 15.5 10.5 15.6119 10.5 15.75V20.75C10.5 21.4404 9.94036 22 9.25 22H4.25C3.55964 22 3 21.4404 3 20.75V11.4556C3 10.3067 3.52672 9.2211 4.42923 8.51003L11.5358 2.91088ZM12 4.45482L5.35754 9.68827C4.81603 10.1149 4.5 10.7662 4.5 11.4556V20.5H9V15.75C9 14.7835 9.7835 14 10.75 14H13.25C14.2165 14 15 14.7835 15 15.75V20.5H19.5V11.4556C19.5 10.7662 19.184 10.1149 18.6425 9.68827L12 4.45482Z" fill="currentColor"/>
</svg>

<svg viewBox="0 0 24 24" fill="none" xmlns="http://www.w3.org/2000/svg"><path d="M11.536 2.91a.75.75 0 01.928 0l7.107 5.6A3.75 3.75 0 0121 11.456v9.294c0 .69-.56 1.25-1.25 1.25h-5c-.69 0-1.25-.56-1.25-1.25v-5a.25.25 0 00-.25-.25h-2.5a.25.25 0 00-.25.25v5c0 .69-.56 1.25-1.25 1.25h-5C3.56 22 3 21.44 3 20.75v-9.294A3.75 3.75 0 014.43 8.51l7.106-5.6zM12 4.456L5.358 9.688a2.25 2.25 0 00-.858 1.768V20.5H9v-4.75c0-.966.784-1.75 1.75-1.75h2.5c.966 0 1.75.784 1.75 1.75v4.75h4.5v-9.044c0-.69-.316-1.341-.858-1.768L12 4.455z" fill="currentColor"/></svg>
